dist/img/svg/filter.svg

<svg width="21" height="20" viewBox="0 0 21 20" fill="none" xmlns="http://www.w3.org/2000/svg">
<path d="M4 7.35697H13.3333M13.3333 7.35697C13.3333 7.98208 13.5792 8.58159 14.0168 9.02361C14.4543 9.46563 15.0478 9.71395 15.6667 9.71395C16.2855 9.71395 16.879 9.46563 17.3166 9.02361C17.7542 8.58159 18 7.98208 18 7.35697C18 6.73187 17.7542 6.13236 17.3166 5.69034C16.879 5.24832 16.2855 5 15.6667 5C15.0478 5 14.4543 5.24832 14.0168 5.69034C13.5792 6.13236 13.3333 6.73187 13.3333 7.35697ZM8.66667 13.643H18M8.66667 13.643C8.66667 14.2681 8.42083 14.8676 7.98325 15.3097C7.54566 15.7517 6.95217 16 6.33333 16C5.71449 16 5.121 15.7517 4.68342 15.3097C4.24583 14.8676 4 14.2681 4 13.643C4 13.0179 4.24583 12.4184 4.68342 11.9764C5.121 11.5344 5.71449 11.2861 6.33333 11.2861C6.95217 11.2861 7.54566 11.5344 7.98325 11.9764C8.42083 12.4184 8.66667 13.0179 8.66667 13.643Z" stroke="currentColor" stroke-width="1.41176" stroke-linecap="round" stroke-linejoin="round"/>
</svg>

<svg width="21" height="20" viewBox="0 0 21 20" fill="none" xmlns="http://www.w3.org/2000/svg"><path d="M4 7.357h9.333m0 0c0 .625.246 1.225.684 1.667a2.318 2.318 0 003.3 0A2.37 2.37 0 0018 7.357a2.37 2.37 0 00-.683-1.667 2.322 2.322 0 00-1.65-.69c-.62 0-1.213.248-1.65.69a2.37 2.37 0 00-.684 1.667zm-4.666 6.286H18m-9.333 0a2.37 2.37 0 01-.684 1.667 2.322 2.322 0 01-1.65.69 2.322 2.322 0 01-1.65-.69A2.37 2.37 0 014 13.643c0-.625.246-1.225.683-1.667a2.322 2.322 0 011.65-.69c.62 0 1.213.248 1.65.69a2.37 2.37 0 01.684 1.667z" stroke="currentColor" stroke-width="1.412" stroke-linecap="round" stroke-linejoin="round"/></svg>
